src/images/crypto-icon-svg/sky.svg

<svg xmlns="http://www.w3.org/2000/svg" width="32" height="32" viewBox="0 0 32 32">
  <g fill="none">
    <circle cx="16" cy="16" r="16" fill="#0072FF"/>
    <path fill="#FFF" d="M24.027027,12.8029795 L19.2148159,23.5 L17.292396,23.5 L22.3572329,12.2394786 C22.9518275,12.3376164 23.5125333,12.5275605 24.027027,12.8029795 Z M15.6071979,6.51899441 L8.20403305,22.9776536 C6.31550203,22.0817505 5,20.1189944 5,17.8333333 C5,14.7024209 7.46156001,12.1666667 10.4992298,12.1666667 C10.4992298,9.17188082 12.7543761,6.72793296 15.6071979,6.51899441 Z M21.5007702,12.1666667 L16.4020445,23.5 L14.319423,23.5 L20.7213275,9.27001862 C21.2142557,10.1184358 21.5007702,11.1061453 21.5007702,12.1666667 Z M23.3954628,23.1486034 L26.6611119,15.8927374 C26.876768,16.5005587 27,17.1527002 27,17.8364991 C27,20.2741155 25.4996499,22.350838 23.3954628,23.1486034 Z M24.8372777,13.3348231 C25.2932362,13.6957169 25.6968212,14.1230912 26.0233861,14.6137803 L22.0368296,23.4715084 C21.8612239,23.4905028 21.6794567,23.5 21.5007702,23.5 L20.265369,23.5 L24.8372777,13.3348231 Z M16.0200252,6.5 C16.7994679,6.50316574 17.5388601,6.67411546 18.2104747,6.98119181 L10.7795827,23.5 L10.4992298,23.5 C9.80913037,23.5 9.14983896,23.3638734 8.54292116,23.1232775 L16.0200252,6.5 Z M20.2869346,8.61787709 L13.592354,23.5 L11.3464501,23.5 L18.6725949,7.21545624 C19.2949167,7.57318436 19.8432993,8.05121043 20.2869346,8.61787709 Z"/>
  </g>
</svg>

<svg xmlns="http://www.w3.org/2000/svg" width="32" height="32"><g fill="none"><circle cx="16" cy="16" r="16" fill="#0072FF"/><path fill="#FFF" d="M24.027 12.803L19.215 23.5h-1.923l5.065-11.26a5.384 5.384 0 0 1 1.67.563zm-8.42-6.284L8.204 22.978C6.316 22.082 5 20.119 5 17.833c0-3.13 2.462-5.666 5.5-5.666 0-2.995 2.254-5.44 5.107-5.648zm5.894 5.648L16.402 23.5h-2.083l6.402-14.23c.493.848.78 1.836.78 2.897zm1.894 10.982l3.266-7.256c.216.608.339 1.26.339 1.943 0 2.438-1.5 4.515-3.605 5.313zm1.442-9.814c.456.36.86.788 1.186 1.279l-3.986 8.858a5.025 5.025 0 0 1-.536.028h-1.236l4.572-10.165zM16.02 6.5c.78.003 1.519.174 2.19.481L10.78 23.5h-.28c-.69 0-1.35-.136-1.957-.377L16.02 6.5zm4.267 2.118L13.592 23.5h-2.246l7.327-16.285c.622.358 1.17.836 1.614 1.403z"/></g></svg>
